X: 13736
T: Forest Rogers'
R: polka
M: 2/4
K: Dmajor
D2 F>A d>AF>d|(3cdc B>^A B>Ac>B|A2 c>e a>e^g>a|(3bc'b a>^g a>fd>A|
(3DED (3FGA (3ded A>d|c2 B2 B>Ac>B|(3ABA c>e a>ec>e|d2 d2 d2:|
A2 f2 f>ed>c|B2 g2 g>fe>d|c>Ac>e (3aba ^g>a|b2 a2 a>^ga>f|
(3ABA f>=f ^f>ed>c|(3BcB g2 g>fe>d|c>A (3cde a2 c2|1 d2 f2 d2:|

